X: 03078
T: RODDY'S RAMBLES
C: Bob McQuillen 19 Mar 78
B: Bob's Note Book 03 #78
%R: march, reel
%D:1978
Z: 2020 John Chambers <jc:trillian.mit.edu>
M: C
L: 1/8
K: D
AG \
| F2A2 A2d2 | B4 A2de | fefg afdc | Be2f e2AG |\
| F2A2 A2d2 | B4 A2de | fefg afeg | f2d2 d2  :|
|: fg \
| a2a2 fed2 | abag fedf | a2a2 fedf | efed cBA2 |\
| a2a2 fed2 | abag fed2 | Be2d cdef | e2d2 d2  :|
%%begintext align
%% For Roddy Miller, one of the
%% best fiddlers I ever played with.
%%endtext

%%sep 1 1 500

%%sep 1 1 500

